product-images/dribbble.svg

<svg viewBox="0 0 24 24" xmlns="http://www.w3.org/2000/svg"><path d="m12 0c-6.617 0-12 5.383-12 12s5.383 12 12 12 12-5.383 12-12-5.383-12-12-12zm5.829 19.331c-.227-1.126-.716-3.265-1.594-5.777.456-.05.924-.075 1.398-.075 1.58 0 2.878.271 3.531.441-.442 2.126-1.631 4.05-3.335 5.411zm-5.8-8.445c.132.265.26.533.384.8-4.239 1.418-6.845 4.729-7.777 6.1-1.254-1.597-1.955-3.553-1.994-5.589 1.378-.011 5.303-.152 9.387-1.311zm-4.364-7.164c.53.746 1.81 2.592 3.071 4.769-3.42.839-6.426.998-7.757 1.025.689-2.477 2.397-4.593 4.686-5.794zm5.917 3.886c-1.173-2.107-2.411-3.92-3.061-4.836 2.591-.412 5.29.304 7.335 1.948-.538.619-1.866 1.909-4.274 2.888zm-.12 6.613c1.1 2.958 1.635 5.449 1.84 6.552-1.056.4-2.165.603-3.302.603-1.965 0-3.831-.598-5.42-1.733.597-1.018 2.56-3.805 6.882-5.422zm1.83-3.134-.075-.179c-.142-.333-.291-.664-.445-.991 2.609-1.153 4.138-2.584 4.831-3.355 1.005 1.399 1.606 3.061 1.732 4.776-.826-.14-2.341-.347-4.081-.347-.682 0-1.34.032-1.962.096z" fill="#444"/></svg>

<svg xmlns="http://www.w3.org/2000/svg" viewBox="0 0 24 24">
    <path fill="#444444" d="M12,0C5.383,0,0,5.383,0,12c0,6.617,5.383,12,12,12c6.617,0,12-5.383,12-12C24,5.383,18.617,0,12,0z
    M17.829,19.331c-0.227-1.126-0.716-3.265-1.594-5.777c0.456-0.05,0.924-0.075,1.398-0.075c1.58,0,2.878,0.271,3.531,0.441
    C20.722,16.046,19.533,17.97,17.829,19.331z M12.029,10.886c0.132,0.265,0.26,0.533,0.384,0.8c-4.239,1.418-6.845,4.729-7.777,6.1
    c-1.254-1.597-1.955-3.553-1.994-5.589C4.02,12.186,7.945,12.045,12.029,10.886z M7.665,3.722c0.53,0.746,1.81,2.592,3.071,4.769
    C7.316,9.33,4.31,9.489,2.979,9.516C3.668,7.039,5.376,4.923,7.665,3.722z M13.582,7.608c-1.173-2.107-2.411-3.92-3.061-4.836
    c2.591-0.412,5.29,0.304,7.335,1.948C17.318,5.339,15.99,6.629,13.582,7.608z M13.462,14.221c1.1,2.958,1.635,5.449,1.84,6.552
    c-1.056,0.4-2.165,0.603-3.302,0.603c-1.965,0-3.831-0.598-5.42-1.733C7.177,18.625,9.14,15.838,13.462,14.221z M15.292,11.087
    l-0.075-0.179c-0.142-0.333-0.291-0.664-0.445-0.991c2.609-1.153,4.138-2.584,4.831-3.355c1.005,1.399,1.606,3.061,1.732,4.776
    c-0.826-0.14-2.341-0.347-4.081-0.347C16.572,10.991,15.914,11.023,15.292,11.087z"/>
</svg>
